X: 1
T: Cate Gray
C: James Gray
R: strathspey
B: Alex & James Gray "Tweeddale Collection" v.4 #6 p.19, p.47 #1,2,3
N: Tune for Cate's Conundrum
Z: 2017 John Chambers <jc:trillian.mit.edu>
M: C
L: 1/16
K: D
A2 |:\
"D"Dd3 d3A "Em"G3F "A"EF3 | "D"Dd3 d3A "G"B3c "D/f#"df3 |\
"Em"e3d fd3 "D/f#"a3d fd3 | "Em"(3g2f2e2 (3f2e2d2 "A7"c3A GE3 |
"D"Dd3 d3A "Em"G3F "A"EF3 | "D"Dd3 d3f "G"(3b2a2g2 "D/f#"af3 |\
"Em"g2fe "D"fd3 "G"B2AG "D/f#"dF3 | "Em"Ee3 e3B "D/a"d3A "A7"GE3 |
"D"F3D AA,3 "G"B,3D GG,3 | "Em"G,G3 (3G2A2B2 "A7"A3G "D"FD3 |\
"G"G3D BB,3 "D/f#"A,3A FA3 | "Em"B3G E3D "A7"(3C2D2E2 (3E2F2G2 |
"D"F3D AA,3 "G"B,3D GG,3 | "Em"Gg3 (3g2a2b2 "A7"a3g "D"fa3 |\
